X:914
T:Filoro 
C:Joe Buchanan's Scottish Tome - Page 524.4
I:524 4
Z:Carl Allison
R:Waltz
L:1/4
M:3/4
K:F
d | "Bb"f3 | "F"d2 c | "Gm"B3 | "Eb"c2 d | "Bb"F3 | "Eb"G F "F7"G | "Bb"B3- | "Cm"B2 d |
"Bb"f3 | "D7"d2 c | "Gm"B3 | "Cm"c2 "F7"d | "Bb"F3 | "Eb"G F "F7"G | "Bb"B3- | "Bb"B2 F |
"Bb"B2 B | "E7"d2 f | "Cm"g3 | "F7"f2 g | "Bb"f3 | "Gm"d c B | "Cm"c3 | "F"f2 g |
"Bb"d f2 | "D7"d2 c | "Gm"B3 | "C"c2 d | "Cm"F3 | "Eb"G F G | "Bb"B3- | B2 |]

